static/assets/img/icons/theme/layout/layout-top-panel-4.svg

<svg height="24" viewBox="0 0 24 24" width="24" xmlns="http://www.w3.org/2000/svg"><g fill="none" fill-rule="evenodd"><path d="m0 0h24v24h-24z" opacity="0"/><g fill="#000"><path d="m3 4h17c.5522847 0 1 .44771525 1 1v2c0 .55228475-.4477153 1-1 1h-17c-.55228475 0-1-.44771525-1-1v-2c0-.55228475.44771525-1 1-1zm0 6h10c.5522847 0 1 .4477153 1 1v2c0 .5522847-.4477153 1-1 1h-10c-.55228475 0-1-.4477153-1-1v-2c0-.5522847.44771525-1 1-1zm0 6h10c.5522847 0 1 .4477153 1 1v2c0 .5522847-.4477153 1-1 1h-10c-.55228475 0-1-.4477153-1-1v-2c0-.5522847.44771525-1 1-1z"/><rect height="10" opacity=".3" rx="1" width="5" x="16" y="10"/></g></g></svg>

<svg width="24px" height="24px" viewBox="0 0 24 24" version="1.1" xmlns="http://www.w3.org/2000/svg" xmlns:xlink="http://www.w3.org/1999/xlink">
    <title>Icon For Layout-top-panel-4</title>
    <g stroke="none" stroke-width="1" fill="none" fill-rule="evenodd">
        <rect opacity="0" x="0" y="0" width="24" height="24"></rect>
        <path d="M3,4 L20,4 C20.5522847,4 21,4.44771525 21,5 L21,7 C21,7.55228475 20.5522847,8 20,8 L3,8 C2.44771525,8 2,7.55228475 2,7 L2,5 C2,4.44771525 2.44771525,4 3,4 Z M3,10 L13,10 C13.5522847,10 14,10.4477153 14,11 L14,13 C14,13.5522847 13.5522847,14 13,14 L3,14 C2.44771525,14 2,13.5522847 2,13 L2,11 C2,10.4477153 2.44771525,10 3,10 Z M3,16 L13,16 C13.5522847,16 14,16.4477153 14,17 L14,19 C14,19.5522847 13.5522847,20 13,20 L3,20 C2.44771525,20 2,19.5522847 2,19 L2,17 C2,16.4477153 2.44771525,16 3,16 Z" fill="#000000"></path>
        <rect fill="#000000" opacity="0.3" x="16" y="10" width="5" height="10" rx="1"></rect>
    </g>
</svg>
